X: 30455
T: Old Wheel Of Fortune, The
R: strathspey
M: 4/4
K: Dmajor
|:(3dcB|A<Fd>F E>A,C>E|F<Dd>D c>DB>D|A<Fd>F E<A,C>E|1 F>A (3GFE D2:|2 F>A (3GFE D>A||
K: Amaj
d>f|e<Ac>A e>Ad>f|e<Ac>A B>^AB>f|e<Ac>A (3efe (3edc|(3ded (3cdc (3BcB A>f|
e<Ac>A (3efe ^d>f|e<Ac>A f>^ef>g|a>fe>c A<ec>e|d2 (3cdc B>A||

